X:01
T: Gan Ainm
O: from James Kelly's Traditional Irish Music
M: 4/4
L: 1/8
Z: Contributed 20030108225434 by Zina Lee zlee@ntw.net
K: D mix
|: A3F GFED | (3EFG AB c2 BA | GBdg (3efg dB | GBAF GFED |
(3EFG AF GFED | (3EFG AB c2 BA | GBdB c2 BA |1 GEDE GABG :|2 GEDE GABd||
|: g3e fddf | efge fedf | eB ~B2 efge | fdef gfef |
gabg efge | dedc BcBA | GBdB c2 BA | GEDE GAB[Gd] :|
